X:283
T:Reel 283
M:4/4
K:Amix
L:1/8
D| (3CB,A, A,C E2FG|AFGE DB,A,B,|C2EC  (3CED EC|A,B,GB, DCA,B,|CB,CD E2EF|GEAF GEDG|EAAG  (3EFG DC|B,CDB, CA,A,|B|cBAB cABG|AGEF GEDG|EAAB A2AB|cABG AGED|CDEF G2AB|cABA GEDF|ECA,B, C2AB|cABG EAA|
